fa/svgs/regular/face-sad-tear.svg

<svg xmlns="http://www.w3.org/2000/svg" viewBox="0 0 512 512"><!--! Font Awesome Free 6.1.1 by @fontawesome - https://fontawesome.com License - https://fontawesome.com/license/free (Icons: CC BY 4.0, Fonts: SIL OFL 1.1, Code: MIT License) Copyright 2022 Fonticons, Inc.--><path d="M169.6 291.3c3.2-4.4 9.6-4.4 12.8 0 13.2 17.3 40.7 57.7 40.7 77.7 0 26-20.6 47-48 47-25.6 0-48-21-48-47 0-20 29.5-60.4 42.5-77.7zM368 346.8c9.9 8.8 10.7 24 1.9 33.9-8.9 9.9-24 10.7-34.8 1.9-20.4-19.1-48.4-30.6-79.1-30.6-13.3 0-24-10.7-24-24s10.7-24 24-24c43 0 82.3 16.2 112 42.8zM335.6 176c17.7 0 32 14.3 32 32s-14.3 32-32 32c-18.5 0-32-14.3-32-32s13.5-32 32-32zm-160 64c-18.5 0-32-14.3-32-32s13.5-32 32-32c17.7 0 32 14.3 32 32s-14.3 32-32 32zM256 0c141.4 0 256 114.6 256 256S397.4 512 256 512 0 397.4 0 256 114.6 0 256 0zm-80.1 448c24.6 10.3 51.7 16 80.1 16 114.9 0 208-93.1 208-208S370.9 48 256 48 48 141.1 48 256c0 52.7 19.59 100.8 51.88 137.4 10.52 32 41.02 54.5 76.02 54.6z"/></svg>

<svg xmlns="http://www.w3.org/2000/svg" viewBox="0 0 512 512"><!--! Font Awesome Free 6.2.1 by @fontawesome - https://fontawesome.com License - https://fontawesome.com/license/free (Icons: CC BY 4.0, Fonts: SIL OFL 1.1, Code: MIT License) Copyright 2022 Fonticons, Inc. --><path d="M169.6 291.3C172.8 286.9 179.2 286.9 182.4 291.3C195.6 308.6 223.1 349 223.1 369C223.1 395 202.5 416 175.1 416C149.5 416 127.1 395 127.1 369C127.1 349 156.6 308.6 169.6 291.3H169.6zM368 346.8C377.9 355.6 378.7 370.8 369.9 380.7C361 390.6 345.9 391.4 335.1 382.6C314.7 363.5 286.7 352 256 352C242.7 352 232 341.3 232 328C232 314.7 242.7 304 256 304C299 304 338.3 320.2 368 346.8L368 346.8zM335.6 176C353.3 176 367.6 190.3 367.6 208C367.6 225.7 353.3 240 335.6 240C317.1 240 303.6 225.7 303.6 208C303.6 190.3 317.1 176 335.6 176zM175.6 240C157.1 240 143.6 225.7 143.6 208C143.6 190.3 157.1 176 175.6 176C193.3 176 207.6 190.3 207.6 208C207.6 225.7 193.3 240 175.6 240zM256 0C397.4 0 512 114.6 512 256C512 397.4 397.4 512 256 512C114.6 512 0 397.4 0 256C0 114.6 114.6 0 256 0zM175.9 448C200.5 458.3 227.6 464 256 464C370.9 464 464 370.9 464 256C464 141.1 370.9 48 256 48C141.1 48 48 141.1 48 256C48 308.7 67.59 356.8 99.88 393.4C110.4 425.4 140.9 447.9 175.9 448V448z"/></svg>
